X:1
T:The Old Red Petticoat
L:1/8
M:6/8
I:linebreak $
K:D
V:1 treble 
V:1
|: A/B/c | d2 d dcB | A2 G F2 A | dcd dB/c/d | e2 c Ace | f2 f fed | g2 g B2 g | fed ABc |1$ %8
 d3 D :|2 d3 D2 |: d | ecA ec/B/A | e2 c ABc | dcB A^GA |1 B2 ^G E2 d | ecA ecA | e2 c A2 c |$ %17
 dcB EF^G | A3 A2 :|2 B2 ^G E2 A | f2 f fed | g2 g B2 g | fed ABc | (d3 D) |] %24
